src/assets/images/headerLogo.svg

<svg width="173" height="40" viewBox="0 0 173 40" fill="none" xmlns="http://www.w3.org/2000/svg">
<path d="M63.3672 28L66.1471 14.9414H70.556C71.6125 14.9414 72.3975 15.1775 72.911 15.6497C73.4245 16.116 73.6812 16.7386 73.6812 17.5177C73.6812 17.984 73.6075 18.4562 73.4599 18.9343C73.3123 19.4123 73.1028 19.855 72.8313 20.2622C72.5598 20.6695 72.2352 21.0059 71.8575 21.2715C71.4856 21.5371 71.0754 21.6935 70.6269 21.7407C70.8984 21.7643 71.1492 21.8322 71.3794 21.9444C71.6155 22.0506 71.8043 22.2188 71.946 22.449C72.0935 22.6733 72.1673 22.9713 72.1673 23.3432C72.1673 23.5025 72.1408 23.7239 72.0876 24.0072C72.0345 24.2905 71.9696 24.6062 71.8929 24.9545C71.8161 25.2968 71.7394 25.6421 71.6627 25.9903C71.586 26.3326 71.521 26.6484 71.4679 26.9376C71.4148 27.2268 71.3882 27.454 71.3882 27.6193C71.3882 27.7078 71.3912 27.7875 71.3971 27.8583C71.4089 27.9233 71.4237 27.9705 71.4414 28H69.9186C69.8891 27.9233 69.8743 27.8052 69.8743 27.6459C69.8743 27.4924 69.8979 27.2829 69.9452 27.0173C69.9983 26.7458 70.0603 26.4536 70.1311 26.1408C70.2078 25.8221 70.2816 25.5063 70.3524 25.1935C70.4232 24.8748 70.4823 24.5826 70.5295 24.317C70.5826 24.0514 70.6092 23.8449 70.6092 23.6973C70.6092 23.2487 70.4498 22.9241 70.1311 22.7234C69.8124 22.5228 69.3726 22.4224 68.8119 22.4224H65.368L66.1471 21.9001L64.8457 28H63.3672ZM66.2091 21.5991L65.6159 21.0944H69.1041C69.6589 21.0944 70.1606 20.9528 70.6092 20.6695C71.0577 20.3862 71.4148 20.0114 71.6804 19.5451C71.946 19.0789 72.0788 18.5683 72.0788 18.0135C72.0788 17.4705 71.9224 17.0456 71.6096 16.7386C71.2968 16.4258 70.7892 16.2694 70.0868 16.2694H66.696L67.5194 15.4195L66.2091 21.5991Z" fill="#41197F"/>
<path d="M78.3775 16.2694L79.2362 15.4107L77.9879 21.3069L77.7223 20.7846H82.7333L82.4588 22.1126H77.4479L77.926 21.5902L76.6688 27.5308L76.1642 26.672H82.4677L82.1844 28H75.0486L77.8286 14.9414H84.9643L84.681 16.2694H78.3775Z" fill="#41197F"/>
<path d="M95.3496 23.4583C95.2374 23.9836 95.0309 24.5236 94.7299 25.0784C94.4347 25.6273 94.0452 26.1379 93.5612 26.61C93.0832 27.0763 92.5224 27.454 91.8791 27.7432C91.2358 28.0325 90.5128 28.1771 89.7101 28.1771C88.7834 28.1771 88.022 27.9734 87.4259 27.5662C86.8357 27.1589 86.3989 26.6012 86.1156 25.8929C85.8382 25.1788 85.6995 24.3672 85.6995 23.4583C85.6995 22.3546 85.85 21.2863 86.1511 20.2534C86.458 19.2205 86.8977 18.2939 87.4702 17.4735C88.0486 16.6472 88.7451 15.992 89.5596 15.508C90.38 15.0241 91.3036 14.7821 92.3306 14.7821C93.2868 14.7821 94.0541 14.9768 94.6325 15.3664C95.2168 15.75 95.6388 16.2399 95.8985 16.836C96.1582 17.4321 96.288 18.046 96.288 18.6775C96.288 18.8369 96.2792 18.9844 96.2615 19.1202C96.2438 19.2559 96.2202 19.3769 96.1906 19.4832H94.6767C94.6944 19.3946 94.7122 19.2766 94.7299 19.129C94.7535 18.9756 94.7653 18.8339 94.7653 18.7041C94.7653 18.2319 94.6708 17.804 94.482 17.4203C94.299 17.0367 94.0157 16.7298 93.6321 16.4996C93.2484 16.2694 92.7585 16.1543 92.1624 16.1543C91.3656 16.1543 90.6603 16.3668 90.0465 16.7918C89.4327 17.2167 88.9162 17.7833 88.4972 18.4916C88.0781 19.1999 87.7623 19.9878 87.5499 20.8554C87.3374 21.7171 87.2311 22.5877 87.2311 23.4671C87.2311 24.5531 87.4466 25.3824 87.8774 25.9549C88.3083 26.5274 88.9693 26.8137 89.8606 26.8137C90.3859 26.8137 90.8698 26.7192 91.3125 26.5303C91.7611 26.3356 92.1565 26.0759 92.4988 25.7513C92.8471 25.4266 93.1333 25.0666 93.3576 24.6712C93.5878 24.2698 93.7471 23.8655 93.8357 23.4583H95.3496Z" fill="#41197F"/>
<path d="M97.5651 28L100.336 14.9414H101.832L99.0702 28H97.5651Z" fill="#41197F"/>
<path d="M104.31 28H102.796L105.576 14.9414H109.153C110.044 14.9414 110.764 15.0949 111.313 15.4018C111.862 15.7087 112.263 16.1219 112.517 16.6413C112.777 17.1547 112.906 17.7273 112.906 18.3588C112.906 19.1379 112.777 19.8402 112.517 20.4659C112.257 21.0856 111.888 21.6197 111.41 22.0683C110.932 22.511 110.363 22.8503 109.702 23.0864C109.046 23.3225 108.32 23.4406 107.524 23.4406H105.284L104.31 28ZM105.399 22.8828L104.885 22.1126H107.533C108.317 22.1126 108.999 21.9562 109.578 21.6433C110.156 21.3305 110.605 20.8938 110.923 20.3331C111.242 19.7724 111.401 19.1172 111.401 18.3676C111.401 17.9191 111.31 17.5413 111.127 17.2344C110.95 16.9216 110.667 16.6826 110.277 16.5173C109.893 16.3521 109.392 16.2694 108.772 16.2694H106.125L106.984 15.4107L105.399 22.8828Z" fill="#41197F"/>
<path d="M117.46 16.2694L118.319 15.4107L117.071 21.3069L116.805 20.7846H121.816L121.542 22.1126H116.531L117.009 21.5902L115.752 27.5308L115.247 26.672H121.551L121.267 28H114.132L116.912 14.9414H124.047L123.764 16.2694H117.46Z" fill="#41197F"/>
<path d="M128.73 28.1771C127.98 28.1771 127.328 28.0708 126.773 27.8583C126.218 27.64 125.79 27.3212 125.489 26.9022C125.188 26.4772 125.038 25.9519 125.038 25.3263C125.038 25.0371 125.059 24.7715 125.1 24.5295C125.147 24.2875 125.209 24.0072 125.286 23.6885H126.791C126.714 23.9954 126.658 24.2551 126.623 24.4675C126.593 24.68 126.578 24.8895 126.578 25.0961C126.578 25.7218 126.773 26.1644 127.163 26.4241C127.558 26.6838 128.131 26.8137 128.88 26.8137C129.518 26.8137 130.087 26.7281 130.589 26.5569C131.091 26.3798 131.486 26.1113 131.775 25.7513C132.064 25.3853 132.209 24.9161 132.209 24.3436C132.209 23.7829 131.979 23.3225 131.518 22.9625C131.064 22.6025 130.444 22.2955 129.659 22.0417C129.063 21.8411 128.526 21.5932 128.048 21.2981C127.576 20.9971 127.201 20.6341 126.924 20.2091C126.652 19.7842 126.516 19.2913 126.516 18.7306C126.516 18.0991 126.637 17.5384 126.879 17.0485C127.127 16.5586 127.47 16.1455 127.906 15.8091C128.343 15.4726 128.851 15.2188 129.429 15.0477C130.008 14.8706 130.633 14.7821 131.306 14.7821C132.056 14.7821 132.705 14.8883 133.254 15.1008C133.809 15.3074 134.236 15.6143 134.537 16.0215C134.838 16.4288 134.989 16.9334 134.989 17.5354C134.989 17.7951 134.968 18.0548 134.927 18.3145C134.886 18.5742 134.833 18.8457 134.768 19.129H133.254C133.319 18.8575 133.366 18.6155 133.395 18.4031C133.431 18.1847 133.448 17.9692 133.448 17.7568C133.448 17.1547 133.251 16.7357 132.855 16.4996C132.46 16.2635 131.89 16.1455 131.147 16.1455C130.545 16.1455 130.008 16.2252 129.535 16.3845C129.063 16.5439 128.691 16.7947 128.42 17.137C128.148 17.4735 128.013 17.9132 128.013 18.4562C128.013 19.0759 128.255 19.5628 128.739 19.917C129.223 20.2652 129.869 20.581 130.677 20.8643C131.309 21.0826 131.852 21.3394 132.306 21.6345C132.761 21.9296 133.109 22.2778 133.351 22.6792C133.599 23.0805 133.723 23.5498 133.723 24.0868C133.723 24.9545 133.502 25.6952 133.059 26.309C132.622 26.9169 132.026 27.3803 131.271 27.699C130.521 28.0177 129.674 28.1771 128.73 28.1771Z" fill="#41197F"/>
<path d="M143.012 28.1976C142.353 28.1976 141.766 28.0945 141.251 27.8883C140.735 27.6764 140.329 27.37 140.031 26.9691C139.733 26.5682 139.584 26.0814 139.584 25.5086C139.584 24.85 139.77 24.3174 140.143 23.9107C140.515 23.4984 140.999 23.1862 141.594 22.9743C142.19 22.7567 142.82 22.6164 143.484 22.5534C144.447 22.4617 145.102 22.3815 145.452 22.3128C145.807 22.2384 145.984 22.1124 145.984 21.9348C145.984 21.9291 145.984 21.9262 145.984 21.9262C145.984 21.9205 145.984 21.9176 145.984 21.9176C145.984 21.6427 145.838 21.4194 145.546 21.2475C145.26 21.0757 144.865 20.9898 144.361 20.9898C143.828 20.9898 143.424 21.0872 143.149 21.2819C142.88 21.4709 142.746 21.7601 142.746 22.1496H139.722C139.722 21.3993 139.928 20.7693 140.34 20.2596C140.758 19.7441 141.319 19.3547 142.024 19.0912C142.728 18.8278 143.516 18.696 144.386 18.696C145.211 18.696 145.976 18.8192 146.68 19.0655C147.39 19.3117 147.963 19.6869 148.398 20.1909C148.839 20.6949 149.06 21.3363 149.06 22.1152C149.06 22.2355 149.06 22.3558 149.06 22.476C149.06 22.5963 149.06 22.7166 149.06 22.8369V25.8609C149.06 26.1014 149.066 26.3362 149.077 26.5653C149.089 26.7887 149.12 26.9949 149.172 27.1839C149.235 27.39 149.312 27.5647 149.404 27.7079C149.501 27.8511 149.578 27.9485 149.635 28H146.637C146.591 27.9542 146.523 27.8654 146.431 27.7337C146.345 27.602 146.271 27.4502 146.208 27.2784C146.133 27.0493 146.079 26.8288 146.044 26.6169C146.01 26.3992 145.993 26.1415 145.993 25.8437L146.646 26.2904C146.485 26.6856 146.222 27.0264 145.855 27.3127C145.495 27.5991 145.068 27.8196 144.575 27.9742C144.083 28.1231 143.562 28.1976 143.012 28.1976ZM143.888 25.9725C144.243 25.9725 144.584 25.901 144.91 25.7578C145.237 25.6146 145.506 25.3855 145.718 25.0705C145.93 24.7555 146.036 24.3345 146.036 23.8076V23.1805L146.809 23.8678C146.431 23.9995 146.002 24.1112 145.52 24.2028C145.039 24.2887 144.57 24.3546 144.112 24.4004C143.625 24.452 143.261 24.535 143.02 24.6495C142.78 24.7641 142.66 24.9531 142.66 25.2165C142.66 25.4685 142.763 25.6575 142.969 25.7835C143.181 25.9095 143.487 25.9725 143.888 25.9725Z" fill="#41197F"/>
<path d="M150.843 31.7542V18.8765H153.91V31.7542H150.843ZM156.668 28.2148C155.946 28.2148 155.285 28.0172 154.683 27.622C154.088 27.2211 153.612 26.6856 153.257 26.0155C152.902 25.3397 152.725 24.5865 152.725 23.7561C152.725 23.7332 152.725 23.7103 152.725 23.6874C152.725 23.6587 152.725 23.6301 152.725 23.6015L153.91 23.5757C153.91 23.5929 153.91 23.6129 153.91 23.6358C153.91 23.653 153.91 23.6673 153.91 23.6788C153.91 24.0797 154.002 24.4262 154.185 24.7183C154.374 25.0046 154.615 25.2251 154.907 25.3798C155.204 25.5287 155.511 25.6031 155.826 25.6031C156.336 25.6031 156.788 25.4256 157.183 25.0705C157.578 24.7154 157.776 24.1541 157.776 23.3867C157.776 22.6192 157.578 22.0665 157.183 21.7286C156.794 21.385 156.341 21.2132 155.826 21.2132C155.517 21.2132 155.213 21.2876 154.915 21.4365C154.623 21.5797 154.383 21.7916 154.194 22.0723C154.005 22.3472 153.91 22.688 153.91 23.0946L152.725 23.0173C152.725 22.1811 152.902 21.4394 153.257 20.7922C153.612 20.145 154.088 19.6353 154.683 19.263C155.285 18.885 155.946 18.696 156.668 18.696C157.407 18.696 158.1 18.8765 158.747 19.2373C159.4 19.5981 159.927 20.1279 160.328 20.8266C160.734 21.5253 160.937 22.3787 160.937 23.3867C160.937 24.4462 160.74 25.334 160.345 26.0499C159.95 26.7658 159.428 27.307 158.781 27.6735C158.134 28.0344 157.43 28.2148 156.668 28.2148Z" fill="#41197F"/>
<path d="M162.404 31.7542V18.8765H165.471V31.7542H162.404ZM168.229 28.2148C167.507 28.2148 166.845 28.0172 166.244 27.622C165.648 27.2211 165.173 26.6856 164.818 26.0155C164.463 25.3397 164.285 24.5865 164.285 23.7561C164.285 23.7332 164.285 23.7103 164.285 23.6874C164.285 23.6587 164.285 23.6301 164.285 23.6015L165.471 23.5757C165.471 23.5929 165.471 23.6129 165.471 23.6358C165.471 23.653 165.471 23.6673 165.471 23.6788C165.471 24.0797 165.563 24.4262 165.746 24.7183C165.935 25.0046 166.175 25.2251 166.467 25.3798C166.765 25.5287 167.072 25.6031 167.387 25.6031C167.896 25.6031 168.349 25.4256 168.744 25.0705C169.139 24.7154 169.337 24.1541 169.337 23.3867C169.337 22.6192 169.139 22.0665 168.744 21.7286C168.355 21.385 167.902 21.2132 167.387 21.2132C167.077 21.2132 166.774 21.2876 166.476 21.4365C166.184 21.5797 165.943 21.7916 165.754 22.0723C165.565 22.3472 165.471 22.688 165.471 23.0946L164.285 23.0173C164.285 22.1811 164.463 21.4394 164.818 20.7922C165.173 20.145 165.648 19.6353 166.244 19.263C166.845 18.885 167.507 18.696 168.229 18.696C168.967 18.696 169.66 18.8765 170.308 19.2373C170.961 19.5981 171.487 20.1279 171.888 20.8266C172.295 21.5253 172.498 22.3787 172.498 23.3867C172.498 24.4462 172.301 25.334 171.906 26.0499C171.51 26.7658 170.989 27.307 170.342 27.6735C169.695 28.0344 168.99 28.2148 168.229 28.2148Z" fill="#41197F"/>
<path fill-rule="evenodd" clip-rule="evenodd" d="M21.3022 17.3109V14.6482V17.3109Z" fill="#8958A3"/>
<path d="M21.3022 17.3109V14.6482" stroke="#8958A3" stroke-width="1.33139" stroke-linecap="square"/>
<path fill-rule="evenodd" clip-rule="evenodd" d="M40.6073 35.9504C40.6073 25.2885 31.9641 16.6453 21.3022 16.6453C10.6403 16.6453 1.99707 25.2885 1.99707 35.9504H40.6073Z" fill="#41197F"/>
<path d="M21.3022 19.9737C15.0367 19.9737 9.6135 23.5804 6.99561 28.8309" stroke="white" stroke-width="1.33139" stroke-linecap="round"/>
<path d="M40.9402 35.9504H1.66423C0.745103 35.9504 0 36.6955 0 37.6146C0 38.5337 0.745103 39.2788 1.66423 39.2788H40.9402C41.8593 39.2788 42.6044 38.5337 42.6044 37.6146C42.6044 36.6955 41.8593 35.9504 40.9402 35.9504Z" fill="#8958A3"/>
<path fill-rule="evenodd" clip-rule="evenodd" d="M18.6395 13.3168H23.965V15.3139H18.6395V13.3168Z" fill="#41197F"/>
<path fill-rule="evenodd" clip-rule="evenodd" d="M30.3205 0C27.7159 0 25.6044 1.57238 25.6044 4.76379C25.6044 7.95521 32.7248 15.1321 33.927 15.1321C35.1292 15.1321 42.2496 7.95521 42.2496 4.76379C42.2496 1.57238 40.1381 0 37.5335 0C36.0867 0 34.7921 0.658024 33.927 1.69394C33.0619 0.658024 31.7673 0 30.3205 0Z" fill="#E44343"/>
<path d="M30.7189 2.27313C29.014 2.27313 27.3092 3.97798 28.4458 6.2511" stroke="white" stroke-width="1.51321" stroke-linecap="round"/>
</svg>

<svg width="173" height="40" fill="none" xmlns="http://www.w3.org/2000/svg"><path d="m63.367 28 2.78-13.059h4.409c1.056 0 1.841.236 2.355.709.513.466.77 1.089.77 1.868 0 .466-.073.938-.221 1.416-.148.478-.357.921-.629 1.328a3.783 3.783 0 0 1-.974 1.01 2.542 2.542 0 0 1-1.23.469c.271.023.522.091.752.203.236.107.425.275.567.505.148.224.221.522.221.894 0 .16-.026.38-.08.664-.053.284-.117.6-.194.947-.077.343-.154.688-.23 1.036-.077.343-.142.658-.195.948a4.02 4.02 0 0 0-.08.681c0 .089.003.169.01.24a.444.444 0 0 0 .043.141H69.92a1.053 1.053 0 0 1-.045-.354c0-.154.024-.363.071-.629.053-.271.115-.563.186-.876.077-.319.15-.635.221-.947.071-.32.13-.611.177-.877a3.39 3.39 0 0 0 .08-.62c0-.448-.16-.773-.478-.974-.319-.2-.758-.3-1.32-.3h-3.443l.78-.523-1.302 6.1h-1.479zm2.842-6.4-.593-.506h3.488a2.76 2.76 0 0 0 1.505-.425 3.157 3.157 0 0 0 1.071-1.124 3.04 3.04 0 0 0 .399-1.532c0-.543-.157-.967-.47-1.274-.312-.313-.82-.47-1.522-.47h-3.391l.823-.85-1.31 6.18zM78.377 16.27l.86-.86-1.25 5.897-.265-.522h5.011l-.274 1.328h-5.011l.478-.523-1.257 5.94-.505-.858h6.304L82.184 28H75.05l2.78-13.059h7.135l-.283 1.328h-6.303zM95.35 23.458a6.07 6.07 0 0 1-.62 1.62 6.325 6.325 0 0 1-1.169 1.532 5.775 5.775 0 0 1-1.682 1.133c-.643.29-1.366.434-2.169.434-.927 0-1.688-.204-2.284-.61-.59-.408-1.027-.966-1.31-1.674-.278-.714-.416-1.526-.416-2.435 0-1.103.15-2.172.451-3.205a9.592 9.592 0 0 1 1.32-2.78 6.748 6.748 0 0 1 2.089-1.965c.82-.484 1.744-.726 2.77-.726.957 0 1.724.195 2.302.584.585.384 1.007.874 1.266 1.47.26.596.39 1.21.39 1.841 0 .16-.009.307-.026.443a2.63 2.63 0 0 1-.071.363h-1.514c.017-.088.035-.206.053-.354a2.868 2.868 0 0 0-.248-1.709 2.128 2.128 0 0 0-.85-.92c-.384-.23-.874-.346-1.47-.346-.796 0-1.502.213-2.116.638-.613.425-1.13.991-1.549 1.7a8.651 8.651 0 0 0-.947 2.363 10.87 10.87 0 0 0-.319 2.612c0 1.086.216 1.915.646 2.488.431.572 1.092.859 1.984.859a3.66 3.66 0 0 0 1.451-.284 4.053 4.053 0 0 0 1.187-.779c.348-.324.634-.684.859-1.08.23-.401.39-.805.478-1.213h1.514zM97.565 28l2.771-13.059h1.496L99.07 28h-1.505zM104.31 28h-1.514l2.78-13.059h3.577c.891 0 1.611.154 2.16.46.549.308.95.72 1.204 1.24.26.514.389 1.086.389 1.718 0 .779-.129 1.481-.389 2.107a4.623 4.623 0 0 1-1.107 1.602 4.91 4.91 0 0 1-1.708 1.018c-.656.237-1.382.355-2.178.355h-2.24L104.31 28zm1.089-5.117-.514-.77h2.648c.784 0 1.466-.157 2.045-.47a3.34 3.34 0 0 0 1.345-1.31c.319-.56.478-1.216.478-1.965 0-.449-.091-.827-.274-1.134-.177-.312-.46-.551-.85-.717-.384-.165-.885-.248-1.505-.248h-2.647l.859-.858-1.585 7.472zM117.46 16.27l.859-.86-1.248 5.897-.266-.522h5.011l-.274 1.328h-5.011l.478-.523-1.257 5.94-.505-.858h6.304L121.267 28h-7.135l2.78-13.059h7.135l-.283 1.328h-6.304zM128.73 28.177c-.75 0-1.402-.106-1.957-.319-.555-.218-.983-.537-1.284-.956-.301-.425-.451-.95-.451-1.576 0-.289.021-.555.062-.797.047-.241.109-.522.186-.84h1.505a9.93 9.93 0 0 0-.168.779c-.03.212-.045.422-.045.628 0 .626.195 1.068.585 1.328.395.26.968.39 1.717.39.638 0 1.207-.086 1.709-.257.502-.177.897-.446 1.186-.806.289-.366.434-.835.434-1.407 0-.561-.23-1.021-.691-1.382-.454-.36-1.074-.666-1.859-.92a7.778 7.778 0 0 1-1.611-.744 3.672 3.672 0 0 1-1.124-1.089c-.272-.425-.408-.918-.408-1.478 0-.632.121-1.193.363-1.683.248-.49.591-.902 1.027-1.239.437-.336.945-.59 1.523-.761a6.385 6.385 0 0 1 1.877-.266c.75 0 1.399.106 1.948.319.555.206.982.513 1.283.92.301.408.452.912.452 1.514 0 .26-.021.52-.062.78-.041.26-.094.53-.159.814h-1.514c.065-.271.112-.514.141-.726.036-.218.053-.434.053-.646 0-.602-.197-1.021-.593-1.257-.395-.236-.965-.355-1.708-.355-.602 0-1.139.08-1.612.24-.472.159-.844.41-1.115.752-.272.337-.407.776-.407 1.32 0 .619.242 1.106.726 1.46.484.348 1.13.664 1.938.947a7.444 7.444 0 0 1 1.629.77c.455.296.803.644 1.045 1.045.248.402.372.87.372 1.408 0 .867-.221 1.608-.664 2.222-.437.608-1.033 1.071-1.788 1.39-.75.319-1.597.478-2.541.478zM143.012 28.198c-.659 0-1.246-.104-1.761-.31-.516-.212-.922-.518-1.22-.919-.298-.4-.447-.888-.447-1.46 0-.659.186-1.192.559-1.598.372-.413.856-.725 1.451-.937a7.573 7.573 0 0 1 1.89-.42c.963-.092 1.618-.172 1.968-.241.355-.075.532-.2.532-.378v-.017c0-.275-.146-.499-.438-.67-.286-.172-.681-.258-1.185-.258-.533 0-.937.097-1.212.292-.269.189-.403.478-.403.868h-3.024c0-.75.206-1.38.618-1.89.418-.516.979-.905 1.684-1.169.704-.263 1.492-.395 2.362-.395.825 0 1.59.123 2.294.37.71.246 1.283.62 1.718 1.125.441.504.662 1.145.662 1.924v3.746c0 .24.006.475.017.704.012.224.043.43.095.619.063.206.14.38.232.524.097.143.174.24.231.292h-2.998a2.232 2.232 0 0 1-.206-.266 2.241 2.241 0 0 1-.223-.456 4.466 4.466 0 0 1-.164-.661 5.085 5.085 0 0 1-.051-.773l.653.446a2.468 2.468 0 0 1-.791 1.023c-.36.286-.787.507-1.28.661a5.368 5.368 0 0 1-1.563.224zm.876-2.226c.355 0 .696-.071 1.022-.214.327-.143.596-.372.808-.688.212-.314.318-.736.318-1.262v-.628l.773.688a9.089 9.089 0 0 1-1.289.335c-.481.086-.95.152-1.408.197-.487.052-.851.135-1.092.25a.585.585 0 0 0-.36.567c0 .252.103.44.309.567.212.126.518.189.919.189zM150.843 31.754V18.876h3.067v12.878h-3.067zm5.825-3.54a3.541 3.541 0 0 1-1.985-.592 4.36 4.36 0 0 1-1.426-1.607c-.355-.675-.532-1.428-.532-2.259V23.602l1.185-.026v.103c0 .4.092.747.275 1.04.189.286.43.506.722.66.297.15.604.224.919.224.51 0 .962-.177 1.357-.533.395-.355.593-.916.593-1.683 0-.768-.198-1.32-.593-1.658a2.019 2.019 0 0 0-2.268-.292 1.83 1.83 0 0 0-.721.635c-.189.275-.284.616-.284 1.023l-1.185-.078c0-.836.177-1.578.532-2.225a4.082 4.082 0 0 1 1.426-1.529 3.658 3.658 0 0 1 1.985-.567c.739 0 1.432.18 2.079.541.653.361 1.18.89 1.581 1.59.406.698.609 1.552.609 2.56 0 1.06-.197 1.947-.592 2.663-.395.716-.917 1.257-1.564 1.623a4.265 4.265 0 0 1-2.113.542zM162.404 31.754V18.876h3.067v12.878h-3.067zm5.825-3.54a3.539 3.539 0 0 1-1.985-.592 4.352 4.352 0 0 1-1.426-1.607c-.355-.675-.533-1.428-.533-2.259V23.602l1.186-.026v.103c0 .4.092.747.275 1.04.189.286.429.506.721.66.298.15.605.224.92.224.509 0 .962-.177 1.357-.533.395-.355.593-.916.593-1.683 0-.768-.198-1.32-.593-1.658a2.015 2.015 0 0 0-2.268-.292 1.833 1.833 0 0 0-.722.635c-.189.275-.283.616-.283 1.023l-1.186-.078c0-.836.178-1.578.533-2.225a4.074 4.074 0 0 1 1.426-1.529 3.655 3.655 0 0 1 1.985-.567c.738 0 1.431.18 2.079.541.653.361 1.179.89 1.58 1.59.407.698.61 1.552.61 2.56 0 1.06-.197 1.947-.592 2.663-.396.716-.917 1.257-1.564 1.623a4.267 4.267 0 0 1-2.113.542z" fill="#41197F"/><path fill-rule="evenodd" clip-rule="evenodd" d="M21.302 17.31v-2.662 2.663z" fill="#8958A3"/><path d="M21.302 17.31v-2.662" stroke="#8958A3" stroke-width="1.331" stroke-linecap="square"/><path fill-rule="evenodd" clip-rule="evenodd" d="M40.607 35.95c0-10.662-8.643-19.305-19.305-19.305-10.662 0-19.305 8.643-19.305 19.305h38.61z" fill="#41197F"/><path d="M21.302 19.974c-6.265 0-11.688 3.606-14.306 8.857" stroke="#fff" stroke-width="1.331" stroke-linecap="round"/><path d="M40.94 35.95H1.664a1.664 1.664 0 1 0 0 3.329H40.94a1.664 1.664 0 0 0 0-3.329z" fill="#8958A3"/><path fill-rule="evenodd" clip-rule="evenodd" d="M18.64 13.317h5.325v1.997H18.64v-1.997z" fill="#41197F"/><path fill-rule="evenodd" clip-rule="evenodd" d="M30.32 0c-2.604 0-4.716 1.572-4.716 4.764 0 3.191 7.12 10.368 8.323 10.368 1.202 0 8.323-7.177 8.323-10.368C42.25 1.572 40.138 0 37.533 0a4.687 4.687 0 0 0-3.606 1.694A4.687 4.687 0 0 0 30.32 0z" fill="#E44343"/><path d="M30.719 2.273c-1.705 0-3.41 1.705-2.273 3.978" stroke="#fff" stroke-width="1.513" stroke-linecap="round"/></svg>
